src/view/frontend/web/svg/heroicons/solid/plus-sm.svg

<svg viewBox="0 0 20 20" fill="currentColor" xmlns="http://www.w3.org/2000/svg">
<path fill-rule="evenodd" clip-rule="evenodd" d="M10 5C10.5523 5 11 5.44772 11 6V9L14 9C14.5523 9 15 9.44772 15 10C15 10.5523 14.5523 11 14 11H11V14C11 14.5523 10.5523 15 10 15C9.44771 15 9 14.5523 9 14V11H6C5.44772 11 5 10.5523 5 10C5 9.44771 5.44772 9 6 9L9 9V6C9 5.44772 9.44771 5 10 5Z" />
</svg>

<svg xmlns="http://www.w3.org/2000/svg" fill="currentColor" viewBox="0 0 20 20"><path fill-rule="evenodd" d="M10 5a1 1 0 0 1 1 1v3h3a1 1 0 1 1 0 2h-3v3a1 1 0 1 1-2 0v-3H6a1 1 0 1 1 0-2h3V6a1 1 0 0 1 1-1Z" clip-rule="evenodd"/></svg>
